static/img/kroki/de8379f18b71a99142440744407d5dae.svg

<?xml version="1.0" encoding="us-ascii" standalone="no"?><svg xmlns="http://www.w3.org/2000/svg" xmlns:xlink="http://www.w3.org/1999/xlink" contentStyleType="text/css" height="679px" preserveAspectRatio="none" style="width:369px;height:679px;" version="1.1" viewBox="0 0 369 679" width="369px" zoomAndPan="magnify"><defs/><g><!--class bucket--><g id="elem_bucket"><rect codeLine="22" fill="#3D176E" height="39.7891" id="bucket" rx="2.5" ry="2.5" style="stroke:#000D19;stroke-width:0.5;" width="98" x="7" y="455.9"/><ellipse cx="22" cy="475.7945" fill="#ADD1B2" rx="11" ry="11" style="stroke:#181818;stroke-width:1.0;"/><path d="M24.9688,481.4352 Q24.3906,481.732 23.75,481.8727 Q23.1094,482.0289 22.4063,482.0289 Q19.9063,482.0289 18.5781,480.3883 Q17.2656,478.732 17.2656,475.607 Q17.2656,472.482 18.5781,470.8258 Q19.9063,469.1695 22.4063,469.1695 Q23.1094,469.1695 23.75,469.3258 Q24.4063,469.482 24.9688,469.7789 L24.9688,472.4977 Q24.3438,471.9195 23.75,471.6539 Q23.1563,471.3727 22.5313,471.3727 Q21.1875,471.3727 20.5,472.4508 Q19.8125,473.5133 19.8125,475.607 Q19.8125,477.7008 20.5,478.7789 Q21.1875,479.8414 22.5313,479.8414 Q23.1563,479.8414 23.75,479.5758 Q24.3438,479.2945 24.9688,478.7164 L24.9688,481.4352 Z " fill="#000000"/><text fill="#D9B8FF" font-family="Helvetica" font-size="17" lengthAdjust="spacing" textLength="56" x="41" y="481.6798">bucket</text></g><!--class digitalocean_resource--><g id="elem_digitalocean_resource"><rect codeLine="24" fill="#3D176E" height="74.0859" id="digitalocean_resource" rx="2.5" ry="2.5" style="stroke:#000D19;stroke-width:0.5;" width="223" x="139.5" y="438.76"/><ellipse cx="154.5" cy="458.6545" fill="#ADD1B2" rx="11" ry="11" style="stroke:#181818;stroke-width:1.0;"/><path d="M157.4688,464.2952 Q156.8906,464.592 156.25,464.7327 Q155.6094,464.8889 154.9063,464.8889 Q152.4063,464.8889 151.0781,463.2483 Q149.7656,461.592 149.7656,458.467 Q149.7656,455.342 151.0781,453.6858 Q152.4063,452.0295 154.9063,452.0295 Q155.6094,452.0295 156.25,452.1858 Q156.9063,452.342 157.4688,452.6389 L157.4688,455.3577 Q156.8438,454.7795 156.25,454.5139 Q155.6563,454.2327 155.0313,454.2327 Q153.6875,454.2327 153,455.3108 Q152.3125,456.3733 152.3125,458.467 Q152.3125,460.5608 153,461.6389 Q153.6875,462.7014 155.0313,462.7014 Q155.6563,462.7014 156.25,462.4358 Q156.8438,462.1545 157.4688,461.5764 L157.4688,464.2952 Z " fill="#000000"/><text fill="#D9B8FF" font-family="Helvetica" font-size="17" lengthAdjust="spacing" textLength="181" x="173.5" y="464.5398">digitalocean_resource</text><line style="stroke:#000D19;stroke-width:0.5;" x1="140.5" x2="361.5" y1="478.5491" y2="478.5491"/><text fill="#D9B8FF" font-family="sans-serif" font-size="14" font-weight="bold" lengthAdjust="spacing" textLength="27" x="150.5" y="500.5442">urn</text><text fill="#D9B8FF" font-family="sans-serif" font-size="14" lengthAdjust="spacing" textLength="48" x="177.5" y="500.5442">: string</text></g><!--class digitalocean_space--><g id="elem_digitalocean_space"><rect codeLine="27" fill="#3D176E" height="39.7891" id="digitalocean_space" rx="2.5" ry="2.5" style="stroke:#000D19;stroke-width:0.5;" width="198" x="54" y="633.84"/><ellipse cx="69" cy="653.7345" fill="#ADD1B2" rx="11" ry="11" style="stroke:#181818;stroke-width:1.0;"/><path d="M71.9688,659.3752 Q71.3906,659.672 70.75,659.8127 Q70.1094,659.9689 69.4063,659.9689 Q66.9063,659.9689 65.5781,658.3283 Q64.2656,656.672 64.2656,653.547 Q64.2656,650.422 65.5781,648.7658 Q66.9063,647.1095 69.4063,647.1095 Q70.1094,647.1095 70.75,647.2658 Q71.4063,647.422 71.9688,647.7189 L71.9688,650.4377 Q71.3438,649.8595 70.75,649.5939 Q70.1563,649.3127 69.5313,649.3127 Q68.1875,649.3127 67.5,650.3908 Q66.8125,651.4533 66.8125,653.547 Q66.8125,655.6408 67.5,656.7189 Q68.1875,657.7814 69.5313,657.7814 Q70.1563,657.7814 70.75,657.5158 Q71.3438,657.2345 71.9688,656.6564 L71.9688,659.3752 Z " fill="#000000"/><text fill="#D9B8FF" font-family="Helvetica" font-size="17" lengthAdjust="spacing" textLength="156" x="88" y="659.6198">digitalocean_space</text></g><!--class resource--><g id="elem_resource"><rect codeLine="29" fill="#3D176E" height="310.7578" id="resource" rx="2.5" ry="2.5" style="stroke:#000D19;stroke-width:0.5;" width="227" x="39.5" y="7"/><ellipse cx="108.25" cy="26.8945" fill="#ADD1B2" rx="11" ry="11" style="stroke:#181818;stroke-width:1.0;"/><path d="M111.2188,32.5352 Q110.6406,32.832 110,32.9727 Q109.3594,33.1289 108.6563,33.1289 Q106.1563,33.1289 104.8281,31.4883 Q103.5156,29.832 103.5156,26.707 Q103.5156,23.582 104.8281,21.9258 Q106.1563,20.2695 108.6563,20.2695 Q109.3594,20.2695 110,20.4258 Q110.6563,20.582 111.2188,20.8789 L111.2188,23.5977 Q110.5938,23.0195 110,22.7539 Q109.4063,22.4727 108.7813,22.4727 Q107.4375,22.4727 106.75,23.5508 Q106.0625,24.6133 106.0625,26.707 Q106.0625,28.8008 106.75,29.8789 Q107.4375,30.9414 108.7813,30.9414 Q109.4063,30.9414 110,30.6758 Q110.5938,30.3945 111.2188,29.8164 L111.2188,32.5352 Z " fill="#000000"/><text fill="#D9B8FF" font-family="Helvetica" font-size="17" lengthAdjust="spacing" textLength="71" x="133.75" y="32.7798">resource</text><line style="stroke:#000D19;stroke-width:0.5;" x1="40.5" x2="265.5" y1="46.7891" y2="46.7891"/><text fill="#D9B8FF" font-family="sans-serif" font-size="14" font-weight="bold" lengthAdjust="spacing" textLength="29" x="50.5" y="68.7842">age</text><text fill="#D9B8FF" font-family="sans-serif" font-size="14" lengthAdjust="spacing" textLength="66" x="79.5" y="68.7842">: duration</text><text fill="#D9B8FF" font-family="sans-serif" font-size="14" font-weight="bold" lengthAdjust="spacing" textLength="43" x="50.5" y="95.0811">atime</text><text fill="#D9B8FF" font-family="sans-serif" font-size="14" lengthAdjust="spacing" textLength="70" x="93.5" y="95.0811">: datetime</text><text fill="#D9B8FF" font-family="sans-serif" font-size="14" font-weight="bold" lengthAdjust="spacing" textLength="43" x="50.5" y="121.3779">ctime</text><text fill="#D9B8FF" font-family="sans-serif" font-size="14" lengthAdjust="spacing" textLength="70" x="93.5" y="121.3779">: datetime</text><text fill="#D9B8FF" font-family="sans-serif" font-size="14" font-weight="bold" lengthAdjust="spacing" textLength="14" x="50.5" y="147.6748">id</text><text fill="#D9B8FF" font-family="sans-serif" font-size="14" lengthAdjust="spacing" textLength="48" x="64.5" y="147.6748">: string</text><text fill="#D9B8FF" font-family="sans-serif" font-size="14" font-weight="bold" lengthAdjust="spacing" textLength="33" x="50.5" y="173.9717">kind</text><text fill="#D9B8FF" font-family="sans-serif" font-size="14" lengthAdjust="spacing" textLength="48" x="83.5" y="173.9717">: string</text><text fill="#D9B8FF" font-family="sans-serif" font-size="14" font-weight="bold" lengthAdjust="spacing" textLength="90" x="50.5" y="200.2686">last_access</text><text fill="#D9B8FF" font-family="sans-serif" font-size="14" lengthAdjust="spacing" textLength="66" x="140.5" y="200.2686">: duration</text><text fill="#D9B8FF" font-family="sans-serif" font-size="14" font-weight="bold" lengthAdjust="spacing" textLength="90" x="50.5" y="226.5654">last_update</text><text fill="#D9B8FF" font-family="sans-serif" font-size="14" lengthAdjust="spacing" textLength="66" x="140.5" y="226.5654">: duration</text><text fill="#D9B8FF" font-family="sans-serif" font-size="14" font-weight="bold" lengthAdjust="spacing" textLength="48" x="50.5" y="252.8623">mtime</text><text fill="#D9B8FF" font-family="sans-serif" font-size="14" lengthAdjust="spacing" textLength="70" x="98.5" y="252.8623">: datetime</text><text fill="#D9B8FF" font-family="sans-serif" font-size="14" font-weight="bold" lengthAdjust="spacing" textLength="43" x="50.5" y="279.1592">name</text><text fill="#D9B8FF" font-family="sans-serif" font-size="14" lengthAdjust="spacing" textLength="48" x="93.5" y="279.1592">: string</text><text fill="#D9B8FF" font-family="sans-serif" font-size="14" font-weight="bold" lengthAdjust="spacing" textLength="34" x="50.5" y="305.4561">tags</text><text fill="#D9B8FF" font-family="sans-serif" font-size="14" lengthAdjust="spacing" textLength="171" x="84.5" y="305.4561">: dictionary[string, string]</text></g><!--reverse link resource to bucket--><g id="link_resource_bucket"><path codeLine="41" d="M99.4277,335.3558 C82.4077,390.0058 70.69,427.62 61.97,455.65 " fill="none" id="resource-backto-bucket" style="stroke:#FFAF37;stroke-width:2.0;"/><polygon fill="none" points="104.78,318.17,93.6991,333.5717,105.1563,337.1399,104.78,318.17" style="stroke:#FFAF37;stroke-width:2.0;"/></g><!--reverse link resource to digitalocean_resource--><g id="link_resource_digitalocean_resource"><path codeLine="42" d="M207.1119,335.3403 C221.2819,380.3803 230.09,408.34 239.58,438.51 " fill="none" id="resource-backto-digitalocean_resource" style="stroke:#FFAF37;stroke-width:2.0;"/><polygon fill="none" points="201.71,318.17,201.3885,337.1409,212.8354,333.5397,201.71,318.17" style="stroke:#FFAF37;stroke-width:2.0;"/></g><!--reverse link bucket to digitalocean_space--><g id="link_bucket_digitalocean_space"><path codeLine="43" d="M75.2581,511.7244 C93.9081,545.5644 123.8,599.77 142.45,633.6 " fill="none" id="bucket-backto-digitalocean_space" style="stroke:#FFAF37;stroke-width:2.0;"/><polygon fill="none" points="66.57,495.96,70.0033,514.6204,80.5129,508.8284,66.57,495.96" style="stroke:#FFAF37;stroke-width:2.0;"/></g><!--reverse link digitalocean_resource to digitalocean_space--><g id="link_digitalocean_resource_digitalocean_space"><path codeLine="44" d="M221.9339,528.9767 C201.5339,565.6167 179.63,604.93 163.61,633.69 " fill="none" id="digitalocean_resource-backto-digitalocean_space" style="stroke:#FFAF37;stroke-width:2.0;"/><polygon fill="none" points="230.69,513.25,216.6916,526.058,227.1761,531.8954,230.69,513.25" style="stroke:#FFAF37;stroke-width:2.0;"/></g><!--SRC=[XP9FQy904CNlVee5Rw62Lbgrz6A5qbwarDvAAUFk92v9TcLsKh5_ldit9afCejx2Ux-PUJFPbLOeC5tpLgIOBf5SnyNQh84W5LCYkvdPn9BeXY64mr7TVBI6Bm9pI54yOVA5h2NKYRULbh51vyHrnNe06KTaCwEAzanWdBVGS8MQ9U3Sb9dqCcEiX56JvJWCwsIzQNUe1gDRR62M55A9zFjzDPZKaOkZpkvz81Rw6yMWUhIvPMp4R8pOKMTJvaGbP6FHlNyoumiefKqaRYhQQv693DAHlbY1ifkS3Y5nrJ6EaT3oTespnbOu6Qjmr0e_du9bVZcnp6ICB7uwVwMWTAGP4YiHp2UXinb9z7uGP6I2uCwt9X-ldVVFQWVlpQDwY32lLna1QsjoXNLQQC2OVtjDjcXQLGO7WT_oMF2p-1Eaz2-_Dc7dPEkyLyr9M-OOAAH3OuQewAXbNWQqVI-ygvBvyAiUbhp_xVLwvKNhQkjPE-NrMv3T9JljF-CK_Wy0]--></g></svg>

<svg xmlns="http://www.w3.org/2000/svg" width="369" height="679" viewBox="0 0 369 679"><rect width="98" height="39.789" x="7" y="455.9" fill="#3D176E" rx="2.5" ry="2.5" style="stroke:#000d19;stroke-width:.5"/><circle cx="22" cy="475.795" r="11" fill="#ADD1B2" style="stroke:#181818;stroke-width:1"/><path d="M24.969 481.435q-.578.297-1.219.438-.64.156-1.344.156-2.5 0-3.828-1.64-1.312-1.657-1.312-4.782t1.312-4.781q1.328-1.656 3.828-1.656.703 0 1.344.156.656.156 1.219.453v2.719q-.625-.578-1.219-.844-.594-.281-1.219-.281-1.343 0-2.031 1.078-.687 1.062-.687 3.156t.687 3.172q.688 1.062 2.031 1.062.625 0 1.219-.265.594-.281 1.219-.86z"/><text x="41" y="481.68" fill="#D9B8FF" font-family="Helvetica" font-size="17" textLength="56">bucket</text><rect width="223" height="74.086" x="139.5" y="438.76" fill="#3D176E" rx="2.5" ry="2.5" style="stroke:#000d19;stroke-width:.5"/><circle cx="154.5" cy="458.654" r="11" fill="#ADD1B2" style="stroke:#181818;stroke-width:1"/><path d="M157.469 464.295q-.578.297-1.219.438-.64.156-1.344.156-2.5 0-3.828-1.64-1.312-1.657-1.312-4.782t1.312-4.781q1.328-1.656 3.828-1.656.703 0 1.344.156.656.156 1.219.453v2.719q-.625-.579-1.219-.844-.594-.281-1.219-.281-1.344 0-2.031 1.078-.687 1.062-.687 3.156t.687 3.172q.688 1.062 2.031 1.062.625 0 1.219-.265.594-.281 1.219-.86z"/><text x="173.5" y="464.54" fill="#D9B8FF" font-family="Helvetica" font-size="17" textLength="181">digitalocean_resource</text><path d="M140.5 478.549h221" style="stroke:#000d19;stroke-width:.5"/><text x="150.5" y="500.544" fill="#D9B8FF" font-family="sans-serif" font-size="14" font-weight="bold" textLength="27">urn</text><text x="177.5" y="500.544" fill="#D9B8FF" font-family="sans-serif" font-size="14" textLength="48">: string</text><rect width="198" height="39.789" x="54" y="633.84" fill="#3D176E" rx="2.5" ry="2.5" style="stroke:#000d19;stroke-width:.5"/><circle cx="69" cy="653.735" r="11" fill="#ADD1B2" style="stroke:#181818;stroke-width:1"/><path d="M71.969 659.375q-.578.297-1.219.438-.64.156-1.344.156-2.5 0-3.828-1.64-1.312-1.657-1.312-4.782t1.312-4.781q1.328-1.656 3.828-1.656.703 0 1.344.156.656.156 1.219.453v2.719q-.625-.578-1.219-.844-.594-.281-1.219-.281-1.344 0-2.031 1.078-.687 1.062-.687 3.156t.687 3.172q.688 1.062 2.031 1.062.625 0 1.219-.265.594-.281 1.219-.86z"/><text x="88" y="659.62" fill="#D9B8FF" font-family="Helvetica" font-size="17" textLength="156">digitalocean_space</text><rect width="227" height="310.758" x="39.5" y="7" fill="#3D176E" rx="2.5" ry="2.5" style="stroke:#000d19;stroke-width:.5"/><circle cx="108.25" cy="26.895" r="11" fill="#ADD1B2" style="stroke:#181818;stroke-width:1"/><path d="M111.219 32.535q-.578.297-1.219.438-.64.156-1.344.156-2.5 0-3.828-1.64-1.312-1.657-1.312-4.782t1.312-4.781q1.328-1.656 3.828-1.656.703 0 1.344.156.656.156 1.219.453v2.719q-.625-.578-1.219-.844-.594-.281-1.219-.281-1.344 0-2.031 1.078-.687 1.062-.687 3.156t.687 3.172q.688 1.062 2.031 1.062.625 0 1.219-.265.594-.281 1.219-.86z"/><text x="133.75" y="32.78" fill="#D9B8FF" font-family="Helvetica" font-size="17" textLength="71">resource</text><path d="M40.5 46.789h225" style="stroke:#000d19;stroke-width:.5"/><text x="50.5" y="68.784" fill="#D9B8FF" font-family="sans-serif" font-size="14" font-weight="bold" textLength="29">age</text><text x="79.5" y="68.784" fill="#D9B8FF" font-family="sans-serif" font-size="14" textLength="66">: duration</text><text x="50.5" y="95.081" fill="#D9B8FF" font-family="sans-serif" font-size="14" font-weight="bold" textLength="43">atime</text><text x="93.5" y="95.081" fill="#D9B8FF" font-family="sans-serif" font-size="14" textLength="70">: datetime</text><text x="50.5" y="121.378" fill="#D9B8FF" font-family="sans-serif" font-size="14" font-weight="bold" textLength="43">ctime</text><text x="93.5" y="121.378" fill="#D9B8FF" font-family="sans-serif" font-size="14" textLength="70">: datetime</text><text x="50.5" y="147.675" fill="#D9B8FF" font-family="sans-serif" font-size="14" font-weight="bold" textLength="14">id</text><text x="64.5" y="147.675" fill="#D9B8FF" font-family="sans-serif" font-size="14" textLength="48">: string</text><text x="50.5" y="173.972" fill="#D9B8FF" font-family="sans-serif" font-size="14" font-weight="bold" textLength="33">kind</text><text x="83.5" y="173.972" fill="#D9B8FF" font-family="sans-serif" font-size="14" textLength="48">: string</text><text x="50.5" y="200.269" fill="#D9B8FF" font-family="sans-serif" font-size="14" font-weight="bold" textLength="90">last_access</text><text x="140.5" y="200.269" fill="#D9B8FF" font-family="sans-serif" font-size="14" textLength="66">: duration</text><text x="50.5" y="226.565" fill="#D9B8FF" font-family="sans-serif" font-size="14" font-weight="bold" textLength="90">last_update</text><text x="140.5" y="226.565" fill="#D9B8FF" font-family="sans-serif" font-size="14" textLength="66">: duration</text><text x="50.5" y="252.862" fill="#D9B8FF" font-family="sans-serif" font-size="14" font-weight="bold" textLength="48">mtime</text><text x="98.5" y="252.862" fill="#D9B8FF" font-family="sans-serif" font-size="14" textLength="70">: datetime</text><text x="50.5" y="279.159" fill="#D9B8FF" font-family="sans-serif" font-size="14" font-weight="bold" textLength="43">name</text><text x="93.5" y="279.159" fill="#D9B8FF" font-family="sans-serif" font-size="14" textLength="48">: string</text><text x="50.5" y="305.456" fill="#D9B8FF" font-family="sans-serif" font-size="14" font-weight="bold" textLength="34">tags</text><text x="84.5" y="305.456" fill="#D9B8FF" font-family="sans-serif" font-size="14" textLength="171">: dictionary[string, string]</text><path fill="none" d="M99.428 335.356C82.408 390.006 70.69 427.62 61.97 455.65m42.81-137.48L93.7 333.572l11.456 3.568zm102.332 17.17c14.17 45.04 22.978 73 32.468 103.17m-37.87-120.34-.322 18.97 11.447-3.6z" style="stroke:#ffaf37;stroke-width:2"/><g fill="none"><path d="M75.258 511.724c18.65 33.84 48.542 88.046 67.192 121.876" style="stroke:#ffaf37;stroke-width:2"/><path d="m66.57 495.96 3.433 18.66 10.51-5.792z" style="stroke:#ffaf37;stroke-width:2"/></g><path fill="none" d="M221.934 528.977c-20.4 36.64-42.304 75.953-58.324 104.713m67.08-120.44-13.998 12.808 10.484 5.837z" style="stroke:#ffaf37;stroke-width:2"/></svg>
